usr/share/icons/biglinux-icons-material/22/actions/labplot-edithlayout.svg

<svg xmlns="http://www.w3.org/2000/svg" viewBox="0 0 22 22">
  <defs id="defs3051">
    <style type="text/css" id="current-color-scheme">
      .ColorScheme-Text {
        color:#363636;
      }
      </style>
  </defs>
 <path 
    style="fill:currentColor;fill-opacity:1;stroke:none" 
	d="M 2 3 L 2 19 L 19 19 L 19 3 L 2 3 z M 3 4 L 10 4 L 11 4 L 18 4 L 18 10 L 3 10 L 3 4 z M 6.0800781 5.0019531 A 2 2 0 0 0 4.6230469 5.5507812 A 2 2 0 0 0 4.2519531 7.9707031 A 2 2 0 0 0 6.5019531 8.9355469 A 2 2 0 0 0 8 7 L 6 7 L 7.0585938 5.3027344 A 2 2 0 0 0 6.0800781 5.0019531 z M 3 11 L 18 11 L 18 18 L 11 18 L 10 18 L 3 18 L 3 11 z M 16 12 L 16 17 L 17 17 L 17 12 L 16 12 z M 14 14 L 14 17 L 15 17 L 15 14 L 14 14 z M 12 15 L 12 17 L 13 17 L 13 15 L 12 15 z "
    class="ColorScheme-Text"
    />
</svg>

<svg xmlns="http://www.w3.org/2000/svg" viewBox="0 0 22 22"><path d="M2 3v16h17V3H2zm1 1h15v6H3V4zm3.08 1.002a2 2 0 0 0-1.457.549 2 2 0 0 0-.371 2.42 2 2 0 0 0 2.25.965A2 2 0 0 0 8 7H6l1.059-1.697a2 2 0 0 0-.979-.301zM3 11h15v7H3v-7zm13 1v5h1v-5h-1zm-2 2v3h1v-3h-1zm-2 1v2h1v-2h-1z" style="fill:currentColor;fill-opacity:1;stroke:none;color:#dedede"/></svg>
